public/showcase/resources/images/home/viacom.svg

<svg height="16" viewBox="0 0 105 16" width="105" xmlns="http://www.w3.org/2000/svg" xmlns:xlink="http://www.w3.org/1999/xlink"><mask id="a" fill="#fff"><path d="m0 0h104.865837v15.8534059h-104.865837z" fill="none"/></mask><mask id="b" fill="#fff"><path d="m0 16.0443919v-16.03111138h105.039367v16.03111138" fill="none"/></mask><g fill="none" fill-rule="evenodd" mask="url(#a)" transform="matrix(1 0 0 -1 .01079 15.916793)"><g fill="#fff" fill-rule="nonzero" mask="url(#b)" transform="translate(0 -.190986)"><path d="m19.9536108 15.7221462v-13.68720416c0-1.0673431.6403521-1.84170652 2.0487854-1.84170652h2.2194701v15.52891068zm73.7551362-11.13389186s-2.6911288 7.55507116-3.2031829 8.97828826c-.3186115.9627563-.7879944 2.1556036-2.9869823 2.1556036h-5.0152856v-15.52891068h1.6869338c1.3000485 0 2.1108009.56507827 2.1108009 1.88356913v10.84102095h.0654291l4.887272-12.72459008h4.5658159l4.8872721 12.72459008h.065429v-10.8619662c0-1.08826046.597396-1.86262388 2.110801-1.86262388h2.113645v15.52891068h-4.716587c-1.6641758 0-2.688284-.4604608-3.2003381-1.9045953-.3413694-.9627563-3.2856805-9.22929656-3.2856805-9.22929656zm-84.59617515-.14642152s-3.67057455 9.41755288-3.8842149 9.96168308c-.27736265.7326653-.66140323 1.3186303-2.06983651 1.3186303h-3.15852044l6.50906117-15.52891068h4.73763843l6.7434682 15.52891068h-2.795531c-1.1950774 0-1.6644603-.5022955-1.9634431-1.2558782l-4.05461509-10.02443518zm46.69279195 8.01553198h2.17623c1.5589203 0 2.477773.5650476 2.477773 1.9461511v1.3186303h-6.1901653c-5.1632123 0-7.6409852-2.9928557-7.6409852-7.76452367 0-5.94362573 3.7778214-7.76438701 7.6409852-7.76438701h6.1901653v1.33941101c0 1.36046503-.9615239 1.92551262-2.3696727 1.92551262h-2.2843303c-2.4521702 0-4.7365005.85789062-4.7365005 4.49946338 0 3.16019457 1.729605 4.49974227 4.7365005 4.49974227zm-16.5820189-6.44617225c0-1.54844237-.72541-2.76248589-2.8589688-2.76248589h-2.2189011c-1.5589203 0-2.4749282.41862608-2.4749282 1.65330806 0 1.19312616.8534235 1.67450432 2.4749282 1.67450432h5.0778699zm-2.0681297 9.71095365h-8.7293847v-1.1928473c0-1.0464257.5535874-2.0719341 2.0698365-2.0719341h5.5700109c2.3469146 0 3.157667-.7535827 3.157667-2.57422965v-.27220457h-5.8886223c-4.3979759 0-5.9972915-1.9879858-5.9972915-4.6879985 0-3.28564298 2.242228-4.72969656 5.9972915-4.72969656h3.9257482c5.1432991 0 6.2527496 2.53234194 6.2527496 5.86007064v3.85074635c0 3.59973799-1.3654776 5.81809369-6.3580052 5.81809369zm33.2920515-12.43160482c2.7736264 0 4.3951311 1.88367791 4.3951311 4.66708115 0 2.95102097-1.729605 4.66708117-4.3951311 4.66708117-2.8390556 0-4.4406471-1.8627606-4.4406471-4.66708117 0-2.67881645 1.5589203-4.66708115 4.4406471-4.66708115zm0 12.59894372c5.1831255 0 8.8756046-2.7624859 8.8756046-7.93186257 0-4.93900682-3.4136941-7.9527403-8.8756046-7.9527403-5.3367418 0-8.9012073 2.88822933-8.9012073 7.9527403 0 5.00203777 3.5217944 7.93186257 8.9012073 7.93186257z" transform="translate(0 .175824)"/></g></g></svg>

<?xml version="1.0" encoding="UTF-8"?>
<svg width="105px" height="16px" viewBox="0 0 105 16" version="1.1" xmlns="http://www.w3.org/2000/svg" xmlns:xlink="http://www.w3.org/1999/xlink">
    <!-- Generator: sketchtool 45.2 (43514) - http://www.bohemiancoding.com/sketch -->
    <title>F4F29977-B262-4EE5-8479-7B382A8F081E</title>
    <desc>Created with sketchtool.</desc>
    <defs>
        <polygon id="path-1" points="0 0 104.865837 0 104.865837 15.8534059 0 15.8534059"></polygon>
        <polyline id="path-3" points="0 16.0443919 0 0.0132805171 105.039367 0.0132805171 105.039367 16.0443919"></polyline>
    </defs>
    <g id="Page-1" stroke="none" stroke-width="1" fill="none" fill-rule="evenodd">
        <g id="PrimeReact-Showcase---Homepage" transform="translate(-1227.000000, -1206.000000)">
            <g id="homepage" transform="translate(301.000000, 70.000000)">
                <g id="brands" transform="translate(0.000000, 1019.000000)">
                    <g transform="translate(109.000000, 27.000000)" id="viacom">
                        <g transform="translate(870.000000, 97.500000) scale(1, -1) translate(-870.000000, -97.500000) translate(817.000000, 89.000000)">
                            <g id="g4176" transform="translate(0.010790, 0.083207)">
                                <g id="g4178">
                                    <g id="g4180-Clipped">
                                        <mask id="mask-2" fill="white">
                                            <use xlink:href="#path-1"></use>
                                        </mask>
                                        <g id="path4184"></g>
                                        <g id="g4180" mask="url(#mask-2)">
                                            <g transform="translate(0.000000, -0.190986)" id="g4186">
                                                <g transform="translate(0.000000, 0.000000)">
                                                    <g id="g4192" transform="translate(0.000000, 0.000000)">
                                                        <g id="g4194-Clipped" transform="translate(0.000000, 0.000000)">
                                                            <mask id="mask-4" fill="white">
                                                                <use xlink:href="#path-3"></use>
                                                            </mask>
                                                            <g id="path4198"></g>
                                                            <g id="g4194" mask="url(#mask-4)" fill-rule="nonzero" fill="#FFFFFF">
                                                                <g transform="translate(0.000000, 0.175824)" id="path4200">
                                                                    <path d="M19.9536108,15.7221462 L19.9536108,15.7221462 L19.9536108,2.03494204 C19.9536108,0.967598937 20.5939629,0.193235517 22.0023962,0.193235517 L24.2218663,0.193235517 L24.2218663,15.7221462 L19.9536108,15.7221462 L19.9536108,15.7221462 Z M93.708747,4.58825434 L93.708747,4.58825434 C93.708747,4.58825434 91.0176182,12.1433255 90.5055641,13.5665426 C90.1869526,14.5292989 89.7175697,15.7221462 87.5185818,15.7221462 L82.5032962,15.7221462 L82.5032962,0.193235517 L84.19023,0.193235517 C85.4902785,0.193235517 86.3010309,0.758313788 86.3010309,2.07680465 L86.3010309,12.9178256 L86.36646,12.9178256 L91.253732,0.193235517 L95.8195479,0.193235517 L100.70682,12.9178256 L100.772249,12.9178256 L100.772249,2.0558594 C100.772249,0.967598937 101.369645,0.193235517 102.88305,0.193235517 L104.996695,0.193235517 L104.996695,15.7221462 L100.280108,15.7221462 C98.6159322,15.7221462 97.591824,15.2616854 97.0797699,13.8175509 C96.7384005,12.8547946 93.7940894,4.58825434 93.7940894,4.58825434 L93.708747,4.58825434 L93.708747,4.58825434 Z M9.11257185,4.44183282 L9.11257185,4.44183282 C9.11257185,4.44183282 5.4419973,13.8593857 5.22835695,14.4035159 C4.9509943,15.1361812 4.56695372,15.7221462 3.15852044,15.7221462 L0,15.7221462 L6.50906117,0.193235517 L11.2466996,0.193235517 L17.9901678,15.7221462 L15.1946368,15.7221462 C13.9995594,15.7221462 13.5301765,15.2198507 13.2311937,14.466268 L9.17657861,4.44183282 L9.11257185,4.44183282 L9.11257185,4.44183282 Z M55.8053638,12.4573648 L55.8053638,12.4573648 L57.9815938,12.4573648 C59.5405141,12.4573648 60.4593668,13.0224124 60.4593668,14.4035159 L60.4593668,15.7221462 L54.2692015,15.7221462 C49.1059892,15.7221462 46.6282163,12.7292905 46.6282163,7.95762253 C46.6282163,2.0139968 50.4060377,0.193235517 54.2692015,0.193235517 L60.4593668,0.193235517 L60.4593668,1.53264653 C60.4593668,2.89311156 59.4978429,3.45815915 58.0896941,3.45815915 L55.8053638,3.45815915 C53.3531936,3.45815915 51.0688633,4.31604977 51.0688633,7.95762253 C51.0688633,11.1178171 52.7984683,12.4573648 55.8053638,12.4573648 Z M39.2233449,6.01119255 L39.2233449,6.01119255 C39.2233449,4.46275018 38.4979349,3.24870666 36.3643761,3.24870666 L34.145475,3.24870666 C32.5865547,3.24870666 31.6705468,3.66733274 31.6705468,4.90201472 C31.6705468,6.09514088 32.5239703,6.57651904 34.145475,6.57651904 L39.2233449,6.57651904 L39.2233449,6.01119255 Z M37.1552152,15.7221462 L37.1552152,15.7221462 L28.4258305,15.7221462 L28.4258305,14.5292989 C28.4258305,13.4828732 28.9794179,12.4573648 30.495667,12.4573648 C31.1584926,12.4573648 36.0656779,12.4573648 36.0656779,12.4573648 C38.4125925,12.4573648 39.2233449,11.7037821 39.2233449,9.88313515 L39.2233449,9.61093058 L33.3347226,9.61093058 C28.9367467,9.61093058 27.3374311,7.62294478 27.3374311,4.92293208 C27.3374311,1.6372891 29.5796591,0.193235517 33.3347226,0.193235517 L37.2604708,0.193235517 C42.4037699,0.193235517 43.5132204,2.72557746 43.5132204,6.05330616 L43.5132204,9.90405251 C43.5132204,13.5037905 42.1477428,15.7221462 37.1552152,15.7221462 L37.1552152,15.7221462 Z M70.4472667,3.29054138 L70.4472667,3.29054138 C73.2208931,3.29054138 74.8423978,5.17421929 74.8423978,7.95762253 C74.8423978,10.9086435 73.1127928,12.6247037 70.4472667,12.6247037 C67.6082111,12.6247037 66.0066196,10.7619431 66.0066196,7.95762253 C66.0066196,5.27880608 67.5655399,3.29054138 70.4472667,3.29054138 L70.4472667,3.29054138 Z M70.4472667,15.8894851 L70.4472667,15.8894851 C75.6303922,15.8894851 79.3228713,13.1269992 79.3228713,7.95762253 C79.3228713,3.01861571 75.9091772,0.00488222966 70.4472667,0.00488222966 C65.1105249,0.00488222966 61.5460594,2.89311156 61.5460594,7.95762253 C61.5460594,12.9596603 65.0678538,15.8894851 70.4472667,15.8894851 L70.4472667,15.8894851 Z"></path>
                                                                </g>
                                                            </g>
                                                        </g>
                                                    </g>
                                                </g>
                                            </g>
                                        </g>
                                    </g>
                                </g>
                            </g>
                        </g>
                    </g>
                </g>
            </g>
        </g>
    </g>
</svg>
